src/icon.svg

<?xml version="1.0" encoding="UTF-8" standalone="no"?>
<svg
   xmlns:osb="http://www.openswatchbook.org/uri/2009/osb"
   xmlns:dc="http://purl.org/dc/elements/1.1/"
   xmlns:cc="http://creativecommons.org/ns#"
   xmlns:rdf="http://www.w3.org/1999/02/22-rdf-syntax-ns#"
   xmlns:svg="http://www.w3.org/2000/svg"
   xmlns="http://www.w3.org/2000/svg"
   xmlns:xlink="http://www.w3.org/1999/xlink"
   xmlns:sodipodi="http://sodipodi.sourceforge.net/DTD/sodipodi-0.dtd"
   xmlns:inkscape="http://www.inkscape.org/namespaces/inkscape"
   width="64px"
   height="64px"
   id="svg2985"
   version="1.1"
   inkscape:version="1.0.1 (c497b03c, 2020-09-10)"
   sodipodi:docname="clippings-tb.svg"
   inkscape:export-filename="/Users/aecreations/Documents/Graphics/Inkscape/Clippings/clippings-tb.png"
   inkscape:export-xdpi="96"
   inkscape:export-ydpi="96">
  <defs
     id="defs2987">
    <linearGradient
       id="linearGradient2141">
      <stop
         style="stop-color:#9e7640;stop-opacity:1"
         offset="0"
         id="stop2137" />
      <stop
         style="stop-color:#deb887;stop-opacity:1"
         offset="1"
         id="stop2139" />
    </linearGradient>
    <linearGradient
       id="linearGradient4654">
      <stop
         style="stop-color:#545454;stop-opacity:0.3764706;"
         offset="0"
         id="stop4656" />
      <stop
         style="stop-color:#000000;stop-opacity:0;"
         offset="1"
         id="stop4658" />
    </linearGradient>
    <linearGradient
       id="linearGradient3764">
      <stop
         style="stop-color:#f9deb0;stop-opacity:1"
         offset="0"
         id="stop3766" />
      <stop
         style="stop-color:#fcefda;stop-opacity:1"
         offset="1"
         id="stop3768" />
    </linearGradient>
    <linearGradient
       inkscape:collect="always"
       xlink:href="#linearGradient3764"
       id="linearGradient3770"
       x1="59.011204"
       y1="59.333591"
       x2="26.49115"
       y2="39.322323"
       gradientUnits="userSpaceOnUse"
       gradientTransform="matrix(0.88793847,0,0,0.88454734,5.484832,-26.615245)" />
    <linearGradient
       inkscape:collect="always"
       xlink:href="#linearGradient2141"
       id="linearGradient3778"
       x1="55.545452"
       y1="63.272728"
       x2="20.999998"
       y2="32.000004"
       gradientUnits="userSpaceOnUse"
       gradientTransform="matrix(0.88793847,0,0,0.88454734,5.484832,-26.615245)" />
    <linearGradient
       inkscape:collect="always"
       xlink:href="#linearGradient4654"
       id="linearGradient4660"
       x1="63.814594"
       y1="63.397808"
       x2="45.454456"
       y2="34.539165"
       gradientUnits="userSpaceOnUse"
       gradientTransform="matrix(0.88062094,0,0,0.8886674,7.0964119,-25.312106)" />
    <linearGradient
       id="linearGradient3784-3">
      <stop
         style="stop-color:#000000;stop-opacity:0;"
         offset="0"
         id="stop3786" />
      <stop
         style="stop-color:#545454;stop-opacity:0.3764706;"
         offset="1"
         id="stop3788" />
    </linearGradient>
    <linearGradient
       id="linearGradient3772-9">
      <stop
         id="stop3774-6"
         offset="0"
         style="stop-color:#6c8ad0;stop-opacity:1;" />
      <stop
         id="stop3776-9"
         offset="1"
         style="stop-color:#203567;stop-opacity:1;" />
    </linearGradient>
    <linearGradient
       id="linearGradient5375">
      <stop
         style="stop-color:#eef3f6;stop-opacity:1;"
         offset="0"
         id="stop5377" />
      <stop
         style="stop-color:#abc3d2;stop-opacity:1;"
         offset="1"
         id="stop5379" />
    </linearGradient>
    <linearGradient
       id="linearGradient5347"
       osb:paint="gradient">
      <stop
         style="stop-color:#000000;stop-opacity:1;"
         offset="0"
         id="stop5349" />
      <stop
         style="stop-color:#000000;stop-opacity:0;"
         offset="1"
         id="stop5351" />
    </linearGradient>
    <linearGradient
       inkscape:collect="always"
       xlink:href="#linearGradient3784-3"
       id="linearGradient3228"
       gradientUnits="userSpaceOnUse"
       gradientTransform="matrix(0.98727627,0,0,0.98066234,1.3049369,20.852021)"
       x1="43.246319"
       y1="1010.7271"
       x2="43.410355"
       y2="1051.9912" />
    <linearGradient
       inkscape:collect="always"
       xlink:href="#linearGradient5375"
       id="linearGradient3230"
       gradientUnits="userSpaceOnUse"
       gradientTransform="matrix(0.97696045,0,0,0.97041573,0.06440567,30.013984)"
       spreadMethod="pad"
       x1="4.2501278"
       y1="1003.4617"
       x2="42.708958"
       y2="1043.0842" />
    <linearGradient
       inkscape:collect="always"
       xlink:href="#linearGradient3772-9"
       id="linearGradient3232"
       gradientUnits="userSpaceOnUse"
       gradientTransform="matrix(0.97696045,0,0,0.97041573,0.06440567,30.013984)"
       x1="4.2501278"
       y1="1003.4617"
       x2="37.459641"
       y2="1051.4814" />
    <linearGradient
       inkscape:collect="always"
       xlink:href="#linearGradient2141"
       id="linearGradient1493"
       x1="39.845692"
       y1="19.744032"
       x2="30.753441"
       y2="1.1190318"
       gradientUnits="userSpaceOnUse"
       gradientTransform="matrix(0.88463048,0,0,0.88463048,7.3828237,1.7367439e-4)" />
    <linearGradient
       inkscape:collect="always"
       xlink:href="#linearGradient2141"
       id="linearGradient1509"
       x1="38.514172"
       y1="20.935343"
       x2="29.049156"
       y2="0.83807075"
       gradientUnits="userSpaceOnUse"
       gradientTransform="matrix(0.88463048,0,0,0.88463048,7.3828237,1.7367439e-4)" />
    <linearGradient
       inkscape:collect="always"
       xlink:href="#linearGradient3784-3"
       id="linearGradient1519"
       x1="39.001541"
       y1="3.8505938"
       x2="37.878788"
       y2="22.102789"
       gradientUnits="userSpaceOnUse"
       gradientTransform="matrix(0.88463048,0,0,0.88463048,7.3828237,1.7367439e-4)" />
  </defs>
  <sodipodi:namedview
     id="base"
     pagecolor="#ffffff"
     bordercolor="#666666"
     borderopacity="1.0"
     inkscape:pageopacity="0.0"
     inkscape:pageshadow="2"
     inkscape:zoom="11.313708"
     inkscape:cx="37.950194"
     inkscape:cy="34.711457"
     inkscape:current-layer="layer1"
     showgrid="true"
     inkscape:document-units="px"
     inkscape:grid-bbox="true"
     inkscape:snap-global="false"
     inkscape:window-width="2048"
     inkscape:window-height="1026"
     inkscape:window-x="0"
     inkscape:window-y="23"
     inkscape:window-maximized="0"
     showguides="true"
     inkscape:guide-bbox="true"
     inkscape:document-rotation="0">
    <inkscape:grid
       type="xygrid"
       id="grid2993"
       empspacing="1"
       visible="true"
       enabled="true"
       snapvisiblegridlinesonly="true" />
  </sodipodi:namedview>
  <metadata
     id="metadata2990">
    <rdf:RDF>
      <cc:Work
         rdf:about="">
        <dc:format>image/svg+xml</dc:format>
        <dc:type
           rdf:resource="http://purl.org/dc/dcmitype/StillImage" />
        <dc:title />
      </cc:Work>
    </rdf:RDF>
  </metadata>
  <g
     id="layer1"
     inkscape:label="Layer 1"
     inkscape:groupmode="layer">
    <rect
       style="fill:url(#linearGradient3770);fill-opacity:1;fill-rule:nonzero;stroke:url(#linearGradient3778);stroke-width:1.76926;stroke-linecap:butt;stroke-linejoin:miter;stroke-miterlimit:4;stroke-dasharray:none;stroke-dashoffset:8.55;stroke-opacity:1"
       id="rect3833"
       width="42.459602"
       height="28.305515"
       x="18.88463"
       y="0.88613588" />
    <path
       style="fill:none;stroke:url(#linearGradient4660);stroke-width:1.7965;stroke-linecap:square;stroke-linejoin:miter;stroke-miterlimit:4;stroke-dasharray:none;stroke-opacity:1"
       d="m 20.6659,30.948537 h 42.429918 l 0.0057,-28.3310705"
       id="path3789"
       inkscape:connector-curvature="0"
       sodipodi:nodetypes="ccc" />
    <path
       style="fill:none;stroke:url(#linearGradient1519);stroke-width:1.76926;stroke-linecap:butt;stroke-linejoin:miter;stroke-miterlimit:4;stroke-dasharray:none;stroke-opacity:1"
       d="M 21.496304,2.9714328 37.49103,16.929251 c 0.910676,0.794702 1.640591,1.264674 2.599443,1.235057 1.127087,-0.03481 1.711968,-0.368075 2.921504,-1.148734 L 61.686493,1.9549493"
       id="path1511"
       sodipodi:nodetypes="ccscc" />
    <path
       style="fill:none;stroke:url(#linearGradient1493);stroke-width:1.32695;stroke-linecap:butt;stroke-linejoin:miter;stroke-miterlimit:4;stroke-dasharray:none;stroke-opacity:1"
       d="M 19.357376,1.5334104 36.99975,14.244771 c 0.871455,0.627885 1.621925,1.201123 2.570171,1.220742 0.988658,0.02046 1.834771,-0.552922 2.73006,-1.160839 L 60.864129,1.6992787"
       id="path1485"
       sodipodi:nodetypes="ccacc" />
    <path
       style="fill:none;stroke:url(#linearGradient1509);stroke-width:1.32695;stroke-linecap:butt;stroke-linejoin:miter;stroke-miterlimit:4;stroke-dasharray:none;stroke-opacity:1"
       d="M 19.712361,1.7141452 36.849253,15.544058 c 0.917033,0.74007 1.658561,1.167264 2.618518,1.203743 1.019069,0.03873 1.956676,-0.369991 2.868724,-1.06322 L 60.571232,1.824724"
       id="path1495"
       sodipodi:nodetypes="ccacc" />
    <g
       inkscape:label="Sheet of paper base"
       id="layer1-0"
       transform="matrix(1.085,0,0,1.085,-4.3399974,-1077.7317)"
       style="display:inline">
      <path
         inkscape:export-ydpi="60"
         inkscape:export-xdpi="60"
         sodipodi:nodetypes="ccccccccccc"
         inkscape:connector-curvature="0"
         d="m 31.079078,1007.4626 v 9.4687 H 42.232407 M 7.2338845,1007.306 v 39.9268 c 2.2514339,-6.38 11.1635765,-8.9823 16.9104515,-5.6815 4.277757,2.3574 3.539809,4.6158 9.461945,8.1711 3.783178,1.6518 6.820841,1.2983 8.736459,1.2983 l -0.110333,-33.7792 -11.54176,-9.9355 z"
         style="fill:none;stroke:url(#linearGradient3228);stroke-width:2.46777;stroke-linecap:butt;stroke-linejoin:miter;stroke-miterlimit:4;stroke-dasharray:none;stroke-opacity:1"
         id="path3792" />
      <path
         id="path3849"
         style="fill:url(#linearGradient3230);fill-opacity:1;stroke:url(#linearGradient3232);stroke-width:2.47535;stroke-linecap:butt;stroke-linejoin:miter;stroke-miterlimit:4;stroke-dasharray:none;stroke-opacity:1"
         d="m 29.156073,1005.7557 v 9.4979 h 11.187573 m -35.1059734,-9.6549 v 40.0494 c 2.2583459,-6.3997 11.1978494,-9.0099 16.9623684,-5.699 4.29089,2.3646 3.550675,4.63 9.490995,8.1961 3.169984,1.5331 6.84178,1.3025 8.763279,1.3025 l -0.110669,-33.883 -11.577196,-9.966 z"
         inkscape:connector-curvature="0"
         sodipodi:nodetypes="ccccccccccc"
         inkscape:export-xdpi="60"
         inkscape:export-ydpi="60" />
      <path
         style="fill:none;stroke:#6080cc;stroke-width:1.74924;stroke-linecap:butt;stroke-linejoin:miter;stroke-miterlimit:4;stroke-dasharray:none;stroke-dashoffset:0;stroke-opacity:1"
         d="M 34.073304,1020.2023 H 10.957756"
         id="path3862"
         inkscape:connector-curvature="0" />
      <path
         style="fill:none;stroke:#6080cc;stroke-width:1.70974;stroke-linecap:butt;stroke-linejoin:miter;stroke-miterlimit:4;stroke-dasharray:none;stroke-dashoffset:0;stroke-opacity:1"
         d="M 23.703966,1015.9778 H 10.963631"
         id="path3864"
         inkscape:connector-curvature="0" />
      <path
         style="fill:none;stroke:#6080cc;stroke-width:1.75071;stroke-linecap:butt;stroke-linejoin:miter;stroke-miterlimit:4;stroke-dasharray:none;stroke-dashoffset:0;stroke-opacity:1"
         d="M 10.952018,1024.4268 H 34.106371"
         id="path3866"
         inkscape:connector-curvature="0" />
      <path
         style="fill:none;stroke:#6080cc;stroke-width:1.74924;stroke-linecap:butt;stroke-linejoin:miter;stroke-miterlimit:4;stroke-dasharray:none;stroke-dashoffset:0;stroke-opacity:1"
         d="M 10.874618,1028.7718 H 33.990023"
         id="path3868"
         inkscape:connector-curvature="0" />
      <path
         style="fill:none;stroke:#6080cc;stroke-width:1.75218;stroke-linecap:butt;stroke-linejoin:miter;stroke-miterlimit:4;stroke-dasharray:none;stroke-dashoffset:0;stroke-opacity:1"
         d="M 10.91178,1033.117 H 34.105004"
         id="path3870"
         inkscape:connector-curvature="0" />
      <path
         style="fill:none;stroke:#6080cc;stroke-width:1.711;stroke-linecap:butt;stroke-linejoin:miter;stroke-miterlimit:4;stroke-dasharray:none;stroke-dashoffset:0;stroke-opacity:1"
         d="M 10.970888,1011.7534 H 23.73204"
         id="path3916"
         inkscape:connector-curvature="0" />
      <path
         style="fill:none;stroke:#6080cc;stroke-width:1.8;stroke-linecap:butt;stroke-linejoin:miter;stroke-miterlimit:4;stroke-dasharray:none;stroke-dashoffset:0;stroke-opacity:1"
         d="M 34.178,1037.4622 H 26.613745"
         id="path3918"
         inkscape:connector-curvature="0" />
    </g>
  </g>
</svg>

<?xml version="1.0" encoding="UTF-8"?>
<svg width="64px" height="64px" version="1.1" xmlns="http://www.w3.org/2000/svg" xmlns:osb="http://www.openswatchbook.org/uri/2009/osb" xmlns:xlink="http://www.w3.org/1999/xlink">
 <defs>
  <linearGradient id="linearGradient2141">
   <stop stop-color="#9e7640" offset="0"/>
   <stop stop-color="#deb887" offset="1"/>
  </linearGradient>
  <linearGradient id="linearGradient3770" x1="59.011" x2="26.491" y1="59.334" y2="39.322" gradientTransform="matrix(.88794 0 0 .88455 5.4848 -26.615)" gradientUnits="userSpaceOnUse">
   <stop stop-color="#f9deb0" offset="0"/>
   <stop stop-color="#fcefda" offset="1"/>
  </linearGradient>
  <linearGradient id="linearGradient3778" x1="55.545" x2="21" y1="63.273" y2="32" gradientTransform="matrix(.88794 0 0 .88455 5.4848 -26.615)" gradientUnits="userSpaceOnUse" xlink:href="#linearGradient2141"/>
  <linearGradient id="linearGradient4660" x1="63.815" x2="45.454" y1="63.398" y2="34.539" gradientTransform="matrix(.88062 0 0 .88867 7.0964 -25.312)" gradientUnits="userSpaceOnUse">
   <stop stop-color="#545454" stop-opacity=".37647" offset="0"/>
   <stop stop-opacity="0" offset="1"/>
  </linearGradient>
  <linearGradient id="linearGradient3784-3">
   <stop stop-opacity="0" offset="0"/>
   <stop stop-color="#545454" stop-opacity=".37647" offset="1"/>
  </linearGradient>
  <linearGradient id="linearGradient3228" x1="43.246" x2="43.41" y1="1010.7" y2="1052" gradientTransform="matrix(.98728 0 0 .98066 1.3049 20.852)" gradientUnits="userSpaceOnUse" xlink:href="#linearGradient3784-3"/>
  <linearGradient id="linearGradient3230" x1="4.2501" x2="42.709" y1="1003.5" y2="1043.1" gradientTransform="matrix(.97696 0 0 .97042 .064406 30.014)" gradientUnits="userSpaceOnUse">
   <stop stop-color="#eef3f6" offset="0"/>
   <stop stop-color="#abc3d2" offset="1"/>
  </linearGradient>
  <linearGradient id="linearGradient3232" x1="4.2501" x2="37.46" y1="1003.5" y2="1051.5" gradientTransform="matrix(.97696 0 0 .97042 .064406 30.014)" gradientUnits="userSpaceOnUse">
   <stop stop-color="#6c8ad0" offset="0"/>
   <stop stop-color="#203567" offset="1"/>
  </linearGradient>
  <linearGradient id="linearGradient1493" x1="39.846" x2="30.753" y1="19.744" y2="1.119" gradientTransform="matrix(.88463 0 0 .88463 7.3828 .00017367)" gradientUnits="userSpaceOnUse" xlink:href="#linearGradient2141"/>
  <linearGradient id="linearGradient1509" x1="38.514" x2="29.049" y1="20.935" y2=".83807" gradientTransform="matrix(.88463 0 0 .88463 7.3828 .00017367)" gradientUnits="userSpaceOnUse" xlink:href="#linearGradient2141"/>
  <linearGradient id="linearGradient1519" x1="39.002" x2="37.879" y1="3.8506" y2="22.103" gradientTransform="matrix(.88463 0 0 .88463 7.3828 .00017367)" gradientUnits="userSpaceOnUse" xlink:href="#linearGradient3784-3"/>
 </defs>
 <g>
  <rect x="18.885" y=".88614" width="42.46" height="28.306" fill="url(#linearGradient3770)" stroke="url(#linearGradient3778)" stroke-dashoffset="8.55" stroke-width="1.7693"/>
  <g fill="none">
   <path d="m20.666 30.949h42.43l0.0057-28.331" stroke="url(#linearGradient4660)" stroke-linecap="square" stroke-width="1.7965"/>
   <g>
    <path d="m21.496 2.9714 15.995 13.958c0.91068 0.7947 1.6406 1.2647 2.5994 1.2351 1.1271-0.03481 1.712-0.36808 2.9215-1.1487l18.675-15.061" stroke="url(#linearGradient1519)" stroke-width="1.7693"/>
    <path d="m19.357 1.5334 17.642 12.711c0.87146 0.62788 1.6219 1.2011 2.5702 1.2207 0.98866 0.02046 1.8348-0.55292 2.7301-1.1608l18.564-12.605" stroke="url(#linearGradient1493)" stroke-width="1.327"/>
    <path d="m19.712 1.7141 17.137 13.83c0.91703 0.74007 1.6586 1.1673 2.6185 1.2037 1.0191 0.03873 1.9567-0.36999 2.8687-1.0632l18.235-13.86" stroke="url(#linearGradient1509)" stroke-width="1.327"/>
   </g>
  </g>
  <g transform="matrix(1.085 0 0 1.085 -4.34 -1077.7)">
   <path d="m31.079 1007.5v9.4687h11.153m-34.999-9.6253v39.927c2.2514-6.38 11.164-8.9823 16.91-5.6815 4.2778 2.3574 3.5398 4.6158 9.4619 8.1711 3.7832 1.6518 6.8208 1.2983 8.7365 1.2983l-0.11033-33.779-11.542-9.9355z" fill="none" stroke="url(#linearGradient3228)" stroke-width="2.4678"/>
   <path d="m29.156 1005.8v9.4979h11.188m-35.106-9.6549v40.049c2.2583-6.3997 11.198-9.0099 16.962-5.699 4.2909 2.3646 3.5507 4.63 9.491 8.1961 3.17 1.5331 6.8418 1.3025 8.7633 1.3025l-0.11067-33.883-11.577-9.966z" fill="url(#linearGradient3230)" stroke="url(#linearGradient3232)" stroke-width="2.4754"/>
   <g fill="none" stroke="#6080cc">
    <path d="m34.073 1020.2h-23.116" stroke-width="1.7492"/>
    <path d="m23.704 1016h-12.74" stroke-width="1.7097"/>
    <path d="m10.952 1024.4h23.154" stroke-width="1.7507"/>
    <path d="m10.875 1028.8h23.115" stroke-width="1.7492"/>
    <path d="m10.912 1033.1h23.193" stroke-width="1.7522"/>
    <path d="m10.971 1011.8h12.761" stroke-width="1.711"/>
    <path d="m34.178 1037.5h-7.5643" stroke-width="1.8"/>
   </g>
  </g>
 </g>
</svg>
